X: 171
T:Jock Wilson's Hornpipe,aka. JC.170
M:C|
L:1/8
Q:180
C:Untitled in MS
S:John Clare,Poet,Helpstone (1793-1864)
R:Hornpipe
O:England
A:Northamptonshire
N:Known slightly differently in one of the Nothumbrian tune books as this
N:title, but untitled in J.Clare.CGP...MRBar 4,the 4th and 5th notes are
N:semi-qu's in Ms..
Z:vmp.P. Headford
K:D
AG|FAdd d2cB|Acee e2dc|defd gfed|c/d/e AAA2AG|!
FAdd d2cB|Acee e2ag|fdec dABG|F2D2D2:|!
|:A2|dAFA DFAd|edcB Aceg|fdAF DFAd|edcB A2z2|!
BGG2 gee2|fdcd B>AGF|GABc dABG|F2D2D2:|]
